images/dist/img-dagger.svg

<svg width="113" height="224" viewBox="0 0 113 224" fill="none" xmlns="http://www.w3.org/2000/svg">
<mask id="mask0_466_93" style="mask-type:alpha" maskUnits="userSpaceOnUse" x="0" y="0" width="113" height="224">
<rect width="113" height="224" fill="#D9D9D9"/>
</mask>
<g mask="url(#mask0_466_93)">
<path fill-rule="evenodd" clip-rule="evenodd" d="M1.14433 -0.00170898C2.18602 0.205517 3.01112 0.935089 4.05281 1.14231C1.13573 3.83967 0.719742 6.9532 2.38542 10.8973C4.6768 8.82165 6.96817 6.53875 9.25955 4.25413C8.00987 7.78381 6.96818 11.5207 5.92648 15.2559C2.38542 15.2559 -1.15565 15.2559 -4.90471 15.2559C-5.94812 11.3118 -6.98809 7.57659 -8.02979 3.83967C-6.15611 6.12429 -4.28072 8.4072 -2.40534 10.6901C-1.36364 7.36936 -0.321951 3.83967 -2.82132 0.727862L1.14433 -0.00170898Z" fill="#9E906A" fill-opacity="0.05"/>
<path fill-rule="evenodd" clip-rule="evenodd" d="M-8.23975 16.7083C-2.40558 16.2938 3.63486 16.2938 9.4673 16.7083C8.21762 18.784 7.17592 20.8597 5.92624 22.9353C3.84285 36.2183 4.05257 49.7086 3.84285 62.9933C3.21887 67.9735 6.55194 72.1249 8.84332 76.2763C5.92624 77.9358 3.21887 79.8042 0.301786 81.4638C-2.40558 79.8042 -5.11467 77.9358 -7.82204 76.0656C-6.15636 72.5394 -2.82157 69.4258 -3.033 65.2762C-2.82157 52.6149 -3.033 40.1625 -4.07298 27.5012C-4.28097 23.557 -6.78035 20.238 -8.23975 16.7083Z" fill="#9E906A" fill-opacity="0.05"/>
<mask id="mask1_466_93" style="mask-type:luminance" maskUnits="userSpaceOnUse" x="-68" y="34" width="182" height="180">
<path d="M-67.1143 34.6357H113.001V213.514H-67.1143V34.6357Z" fill="white"/>
</mask>
<g mask="url(#mask1_466_93)">
<path fill-rule="evenodd" clip-rule="evenodd" d="M-45.7372 37.6705C-38.4454 34.557 -30.5296 34.7659 -23.0297 35.3876C-24.4874 37.6705 -25.9468 39.9551 -27.6125 42.238C-28.2382 41.4074 -29.2799 39.7462 -29.9038 38.9173C-35.322 40.5768 -41.3625 42.0308 -44.0698 47.4255C-39.6951 48.6706 -35.1123 49.7084 -30.5296 50.5391C-36.778 51.368 -43.0281 51.7841 -49.2783 52.4075C-55.5284 61.3319 -55.9444 73.1609 -50.112 82.2943C-31.9872 113.012 5.09426 125.673 24.675 155.352C28.8417 153.07 34.4662 151.408 35.2999 146.012C36.3416 139.163 34.4662 132.313 34.0502 125.466C44.6751 122.352 55.2983 118.408 64.2558 111.767C78.4218 102.219 87.3793 87.2762 95.7129 72.7482C94.8792 85.615 94.4632 99.1052 87.5891 110.521C80.2972 121.522 67.3809 127.124 56.132 132.936C75.0888 132.313 94.6712 133.56 113.004 127.332V131.484V128.994C107.586 135.012 101.545 141.239 93.2135 143.107C80.7149 146.428 68.0066 142.691 55.5063 141.032C70.506 153.691 88.6308 161.578 106.754 168.428C94.0455 169.052 80.7132 168.635 68.8386 163.032C62.5902 160.126 57.3817 155.56 51.7573 151.408C56.7577 164.691 65.2975 176.315 77.5881 183.58C64.4656 182.126 54.4646 173.409 45.5071 164.691C46.1328 171.333 47.3825 177.56 49.2579 183.992C42.5917 179.428 38.633 172.371 37.5913 164.482C36.9673 168.428 36.5496 172.58 34.8839 176.52C32.8005 171.542 35.2999 162.408 28.4258 160.956C29.6754 167.598 31.7588 174.237 30.5091 181.088C28.2178 193.956 19.8842 204.956 10.093 213.258C10.7187 208.277 10.9267 203.088 12.3844 198.108C15.5095 192.088 20.7179 186.693 20.7179 179.428C21.3419 165.729 10.301 155.56 0.719495 147.673C-22.196 129.615 -49.0703 113.219 -62.6106 86.2384C-69.6927 73.3699 -67.1933 56.7661 -57.1958 46.1788C-60.3192 45.9732 -63.6523 45.5588 -66.7773 45.3499C-59.2775 44.1048 -52.6131 40.5768 -45.7372 37.6705Z" fill="#9E906A" fill-opacity="0.05"/>
</g>
<path fill-rule="evenodd" clip-rule="evenodd" d="M24.0491 35.5949C33.634 34.3516 43.6315 35.3877 52.1731 40.1624C56.9655 43.067 62.382 44.1049 67.7967 45.3499C65.5054 45.5589 60.9209 45.9733 58.8409 46.1788C66.9648 56.559 70.2978 70.8781 64.8814 83.3322C55.2981 106.163 34.466 121.314 15.7173 136.05C16.1333 129.615 16.759 123.39 17.3847 116.956C31.5507 105.125 47.5903 93.2927 54.2565 75.2384C57.3815 67.3501 54.2565 59.2563 50.0897 52.4076C44.0492 51.7842 37.7991 51.368 31.7587 50.3319C36.3414 49.0868 42.3819 49.9175 44.675 44.9355C39.8825 42.4453 33.2163 36.6327 28.2159 41.822C27.1759 40.1624 25.0925 37.0489 24.0491 35.5949Z" fill="#9E906A" fill-opacity="0.05"/>
<path fill-rule="evenodd" clip-rule="evenodd" d="M-43.6538 85.824C-43.0281 79.1808 -34.9043 74.4078 -28.6541 77.3141C-21.364 80.0114 -12.6145 74.615 -6.15633 79.8042C-3.86323 81.2565 -1.78156 82.7105 0.509817 84.37C4.0526 82.0871 7.17596 79.597 10.9267 77.7285C16.5495 77.3141 22.3836 78.143 28.2161 78.3519C33.8405 73.5772 43.4238 78.5591 44.4654 85.4079C39.4667 80.0114 31.9669 82.5016 25.5087 82.2943C20.51 81.8799 15.9255 84.1628 11.5507 86.2385L10.7187 87.6908C10.7187 89.1431 10.7187 92.0494 10.7187 93.5017C11.7604 94.125 14.0518 95.1629 15.3015 95.7863C10.509 101.39 4.88458 106.37 0.509817 112.39C-4.07294 106.37 -9.07169 100.974 -14.6979 96.2007C-13.4482 95.5756 -10.9471 94.125 -9.4894 93.5017C-9.69739 91.2187 -9.69739 88.7286 -9.90539 86.2385C-18.8629 81.0493 -29.2798 82.2943 -39.279 82.0871C-40.3207 83.125 -42.6121 84.9934 -43.6538 85.824Z" fill="#9E906A" fill-opacity="0.05"/>
<path fill-rule="evenodd" clip-rule="evenodd" d="M1.55127 114.88C5.71804 109.277 10.3008 104.087 15.5093 99.5215C14.6756 111.559 13.0099 123.597 12.3842 135.635C9.04939 132.936 5.30205 130.239 2.38497 127.124C0.927286 123.183 1.96898 118.823 1.55127 114.88Z" fill="#9E906A" fill-opacity="0.05"/>
<mask id="mask2_466_93" style="mask-type:luminance" maskUnits="userSpaceOnUse" x="-11" y="142" width="22" height="109">
<path d="M-10.7871 142.927H10.7756V251H-10.7871V142.927Z" fill="white"/>
</mask>
<g mask="url(#mask2_466_93)">
<path fill-rule="evenodd" clip-rule="evenodd" d="M-10.5327 143.107C-6.78022 146.012 -3.03288 149.126 0.719623 152.446C4.05269 155.56 8.42746 158.259 10.5091 162.409C10.0931 180.466 8.63545 198.313 6.13436 216.162C5.09439 224.674 2.1773 242.242 1.5516 250.959L-0.741496 241.485C-1.78147 231.108 -4.90483 220.939 -6.15623 210.353C-9.0716 188.146 -9.4893 165.522 -10.5327 143.107Z" fill="#9E906A" fill-opacity="0.05"/>
</g>
</g>
</svg>

<svg width="113" height="224" fill="none" xmlns="http://www.w3.org/2000/svg"><mask id="a" style="mask-type:alpha" maskUnits="userSpaceOnUse" x="0" y="0" width="113" height="224"><path fill="#D9D9D9" d="M0 0h113v224H0z"/></mask><g mask="url(#a)"><path fill-rule="evenodd" clip-rule="evenodd" d="M1.144-.002c1.042.208 1.867.937 2.909 1.144C1.136 3.84.72 6.953 2.385 10.897 4.677 8.822 6.968 6.54 9.26 4.254c-1.25 3.53-2.292 7.267-3.334 11.002h-10.83A880.12 880.12 0 00-8.03 3.84c1.874 2.284 3.75 4.567 5.625 6.85C-1.364 7.37-.322 3.84-2.821.728l3.965-.73zm-9.384 16.71a126.227 126.227 0 0117.707 0c-1.25 2.076-2.291 4.152-3.54 6.227C3.842 36.218 4.052 49.71 3.842 62.993c-.624 4.98 2.709 9.132 5 13.283-2.917 1.66-5.624 3.528-8.541 5.188-2.708-1.66-5.417-3.528-8.124-5.398 1.666-3.527 5-6.64 4.789-10.79.211-12.661 0-25.113-1.04-37.775-.208-3.944-2.707-7.263-4.167-10.793z" fill="#9E906A" fill-opacity=".05"/><mask id="b" style="mask-type:luminance" maskUnits="userSpaceOnUse" x="-68" y="34" width="182" height="180"><path d="M-67.114 34.636H113v178.878H-67.114V34.636z" fill="#fff"/></mask><g mask="url(#b)"><path fill-rule="evenodd" clip-rule="evenodd" d="M-45.737 37.67c7.292-3.113 15.207-2.904 22.707-2.282-1.457 2.282-2.917 4.567-4.582 6.85-.626-.83-1.668-2.492-2.292-3.32-5.418 1.659-11.458 3.113-14.166 8.508 4.375 1.245 8.958 2.282 13.54 3.113-6.248.829-12.498 1.245-18.748 1.868-6.25 8.925-6.666 20.754-.834 29.887 18.125 30.718 55.206 43.379 74.787 73.058 4.167-2.282 9.791-3.944 10.625-9.34 1.042-6.849-.834-13.699-1.25-20.546 10.625-3.114 21.248-7.058 30.206-13.699 14.166-9.548 23.123-24.49 31.457-39.019-.834 12.867-1.25 26.357-8.124 37.773-7.292 11.001-20.208 16.603-31.457 22.415 18.957-.623 38.54.624 56.872-5.604v4.152-2.49c-5.418 6.018-11.459 12.245-19.79 14.113-12.5 3.321-25.207-.416-37.708-2.075 15 12.659 33.125 20.546 51.248 27.396-12.709.624-26.04.207-37.915-5.396-6.249-2.906-11.457-7.472-17.082-11.624 5 13.283 13.54 24.907 25.831 32.172-13.122-1.454-23.123-10.171-32.08-18.889.625 6.642 1.874 12.869 3.75 19.301-6.666-4.564-10.625-11.621-11.667-19.51-.624 3.946-1.041 8.098-2.707 12.038-2.084-4.978.416-14.112-6.458-15.564 1.25 6.642 3.333 13.281 2.083 20.132-2.291 12.868-10.625 23.868-20.416 32.17.626-4.981.834-10.17 2.291-15.15 3.125-6.02 8.334-11.415 8.334-18.68.624-13.699-10.417-23.868-19.999-31.755-22.915-18.058-49.79-34.454-63.33-61.435-7.082-12.868-4.582-29.472 5.415-40.06-3.123-.205-6.456-.62-9.581-.828 7.5-1.245 14.164-4.773 21.04-7.68z" fill="#9E906A" fill-opacity=".05"/></g><path fill-rule="evenodd" clip-rule="evenodd" d="M24.05 35.595c9.584-1.243 19.582-.207 28.123 4.567 4.792 2.905 10.209 3.943 15.624 5.188-2.292.209-6.876.623-8.956.829 8.124 10.38 11.457 24.7 6.04 37.153-9.583 22.831-30.415 37.982-49.164 52.718.416-6.435 1.042-12.66 1.668-19.094C31.55 105.125 47.59 93.293 54.257 75.238c3.125-7.888 0-15.982-4.167-22.83-6.04-.624-12.29-1.04-18.331-2.076 4.582-1.245 10.623-.415 12.916-5.397-4.792-2.49-11.459-8.302-16.46-3.113-1.04-1.66-3.122-4.773-4.166-6.227z" fill="#9E906A" fill-opacity=".05"/><path fill-rule="evenodd" clip-rule="evenodd" d="M-43.654 85.824c.626-6.643 8.75-11.416 15-8.51 7.29 2.697 16.04-2.699 22.498 2.49C-3.863 81.257-1.782 82.71.51 84.37c3.543-2.283 6.666-4.773 10.417-6.642 5.622-.414 11.457.415 17.29.624 5.623-4.775 15.207.207 16.248 7.056-4.998-5.397-12.498-2.906-18.956-3.114-4.999-.414-9.584 1.869-13.958 3.945l-.832 1.452v5.81c1.041.624 3.333 1.662 4.583 2.285C10.509 101.39 4.885 106.37.51 112.39c-4.583-6.02-9.582-11.416-15.208-16.19 1.25-.624 3.75-2.075 5.209-2.698-.208-2.283-.208-4.773-.416-7.263-8.958-5.19-19.375-3.945-29.374-4.152-1.042 1.038-3.333 2.906-4.375 3.737z" fill="#9E906A" fill-opacity=".05"/><path fill-rule="evenodd" clip-rule="evenodd" d="M1.551 114.88c4.167-5.603 8.75-10.793 13.958-15.358-.833 12.037-2.5 24.075-3.125 36.113-3.335-2.699-7.082-5.396-9.999-8.511-1.458-3.941-.416-8.301-.834-12.244z" fill="#9E906A" fill-opacity=".05"/><mask id="c" style="mask-type:luminance" maskUnits="userSpaceOnUse" x="-11" y="142" width="22" height="109"><path d="M-10.787 142.927h21.563V251h-21.563V142.927z" fill="#fff"/></mask><g mask="url(#c)"><path fill-rule="evenodd" clip-rule="evenodd" d="M-10.533 143.107A223.23 223.23 0 01.72 152.446c3.333 3.114 7.707 5.813 9.79 9.963a463.145 463.145 0 01-4.376 53.753c-1.04 8.512-3.957 26.08-4.582 34.797l-2.293-9.474c-1.04-10.377-4.164-20.546-5.415-31.132-2.916-22.207-3.333-44.831-4.377-67.246z" fill="#9E906A" fill-opacity=".05"/></g></g></svg>
